static/assets/template/assets/img/icons/essential/detailed/Gift.svg

<svg height="131" viewBox="0 0 150 131" width="150" xmlns="http://www.w3.org/2000/svg"><g fill="none" fill-rule="evenodd" transform="translate(2 2)"><g stroke-linecap="round" stroke-linejoin="round" stroke-width="3" transform="translate(9 126)"><path d="m1.5.2h-.8"/><path d="m23.7.2h-19.1"/><path d="m27.8.2h-.7"/><path d="m91 .2h-59"/><path d="m118.6.2h-24.2"/><path d="m122.9.2h-1.2"/><path d="m126.5.2h-.2"/></g><path d="m120.8 53.7v9.9c0 2-1.6 3.6-3.6 3.6h-83.7c-2 0-3.6-1.6-3.6-3.6v-9.9c0-2 1.6-3.6 3.6-3.6h83.7c1.9 0 3.6 1.6 3.6 3.6z" fill-rule="nonzero"/><path d="m120.8 55.1v10.1c0 1.1-1 2-2.3 2h-82.5c-1.3 0-2.3-.9-2.3-2v-10.1c0-1.1 1-2 2.3-2h82.5c1.2 0 2.3.9 2.3 2z" fill-rule="nonzero"/><path d="m115.2 67.1v53.9c0 3.1-2.5 5.6-5.6 5.6h-68.6c-3.1 0-5.6-2.5-5.6-5.6v-53.9z" fill-rule="nonzero"/><path d="m115.2 67.1v55.7c0 2.1-1.6 3.8-3.5 3.8h-67.8c-2 0-3.5-1.7-3.5-3.8v-55.7z" fill-rule="nonzero"/><path d="m68.4 50h13.5v76.3h-13.5z" fill-rule="nonzero"/><path d="m40.4 67.1h74.9v4.7h-74.9z" fill="#5ea6ff" fill-rule="nonzero"/><g stroke-linecap="round" stroke-linejoin="round" stroke-width="3"><path d="m111.9 67.1h3.3v53.9c0 3.1-2.5 5.6-5.6 5.6h-68.6c-3.1 0-5.6-2.5-5.6-5.6v-38.4"/><path d="m35.4 74.3v-7.2h66.7"/><path d="m102.3 67.1h-68.8c-2 0-3.6-1.6-3.6-3.6v-9.9c0-2 1.6-3.6 3.6-3.6"/><path d="m45.6 50.1h71.5c2 0 3.6 1.6 3.6 3.6v9.9c0 2-1.6 3.6-3.6 3.6h-6.5"/><path d="m38.5 50.1h.8"/><path d="m68.6 60.2v-10.1"/><path d="m68.6 126.6v-59.5"/><path d="m82 98.9v27.7"/><path d="m82 87.1v.9"/><path d="m82 54v27.7"/><path d="m63.1 25.4c-1.1 0-2.3.2-3.3.4"/><path d="m55 28.5c-2.6 2.3-4.2 5.6-4.2 9.2 0 6.8 5.5 12.3 12.3 12.3h12.3v-12.3c0-4.5-2.4-8.4-5.9-10.5"/><path d="m84.7 50.1h-9.2v-10.5c0-5.8 4.7-10.5 10.5-10.5s10.5 4.7 10.5 10.5c0 2.2-.7 4.3-1.9 6"/><path d="m57.3 33c-.2.2-.4.5-.5.7"/><path d="m71.1 45.6v-7.7c0-3.3-2-6.1-4.9-7.2"/><path d="m56.8 33.7c-.8 1.2-1.2 2.7-1.2 4.2 0 4.3 3.5 7.8 7.8 7.8h2.8"/><path d="m79.5 46v-6.5c0-1.3.4-2.5 1-3.5"/><path d="m85.2 33.1c.3 0 .5-.1.8-.1 3.6 0 6.5 2.9 6.5 6.5s-2.9 6.5-6.5 6.5h-2"/><g><path d="m73.9.4v10.2"/><g transform="translate(2 94)"><path d="m133.8.5 9.8 2.7"/><path d="m6.7 1.6 3.5-.7"/><path d="m.3 2.7 1.1-.2"/></g><g transform="translate(0 54)"><path d="m.1.1 14 3.8"/><path d="m133.6 3.5 10-1.8"/></g><g transform="translate(32 9)"><path d="m84.8 6.5-5.3 6.1"/><path d="m90.5.1-2.7 3"/><path d="m0 8 3.5 4.9"/></g></g></g></g></svg>

<?xml version="1.0" encoding="UTF-8"?>
<svg width="150px" height="131px" viewBox="0 0 150 131" version="1.1" xmlns="http://www.w3.org/2000/svg" xmlns:xlink="http://www.w3.org/1999/xlink">
    <!-- Generator: Sketch 51.2 (57519) - http://www.bohemiancoding.com/sketch -->
    <title>Gift</title>
    <desc>Created with Sketch.</desc>
    <defs></defs>
    <g id="Page-1" stroke="none" stroke-width="1" fill="none" fill-rule="evenodd">
        <g id="Gift" transform="translate(2.000000, 2.000000)">
            <g id="Group" transform="translate(9.000000, 126.000000)" class="stroke-primary-300" stroke-linecap="round" stroke-linejoin="round" stroke-width="3">
                <path d="M1.5,0.2 L0.7,0.2" id="Shape"></path>
                <path d="M23.7,0.2 L4.6,0.2" id="Shape"></path>
                <path d="M27.8,0.2 L27.1,0.2" id="Shape"></path>
                <path d="M91,0.2 L32,0.2" id="Shape"></path>
                <path d="M118.6,0.2 L94.4,0.2" id="Shape"></path>
                <path d="M122.9,0.2 L121.7,0.2" id="Shape"></path>
                <path d="M126.5,0.2 L126.3,0.2" id="Shape"></path>
            </g>
            <path d="M120.8,53.7 L120.8,63.6 C120.8,65.6 119.2,67.2 117.2,67.2 L33.5,67.2 C31.5,67.2 29.9,65.6 29.9,63.6 L29.9,53.7 C29.9,51.7 31.5,50.1 33.5,50.1 L117.2,50.1 C119.1,50.1 120.8,51.7 120.8,53.7 Z" id="Shape" class="fill-neutral" fill-rule="nonzero"></path>
            <path d="M120.8,55.1 L120.8,65.2 C120.8,66.3 119.8,67.2 118.5,67.2 L36,67.2 C34.7,67.2 33.7,66.3 33.7,65.2 L33.7,55.1 C33.7,54 34.7,53.1 36,53.1 L118.5,53.1 C119.7,53.1 120.8,54 120.8,55.1 Z" id="Shape" class="fill-primary-300" fill-rule="nonzero"></path>
            <path d="M115.2,67.1 L115.2,121 C115.2,124.1 112.7,126.6 109.6,126.6 L41,126.6 C37.9,126.6 35.4,124.1 35.4,121 L35.4,67.1 L115.2,67.1 Z" id="Shape" class="fill-neutral" fill-rule="nonzero"></path>
            <path d="M115.2,67.1 L115.2,122.8 C115.2,124.9 113.6,126.6 111.7,126.6 L43.9,126.6 C41.9,126.6 40.4,124.9 40.4,122.8 L40.4,67.1 L115.2,67.1 Z" id="Shape" class="fill-primary-300" fill-rule="nonzero"></path>
            <rect id="Rectangle-path" class="fill-neutral" fill-rule="nonzero" x="68.4" y="50" width="13.5" height="76.3"></rect>
            <rect id="Rectangle-path" fill="#5EA6FF" fill-rule="nonzero" x="40.4" y="67.1" width="74.9" height="4.7"></rect>
            <path d="M111.9,67.1 L115.2,67.1 L115.2,121 C115.2,124.1 112.7,126.6 109.6,126.6 L41,126.6 C37.9,126.6 35.4,124.1 35.4,121 L35.4,82.6" id="Shape" class="stroke-primary" stroke-width="3" stroke-linecap="round" stroke-linejoin="round"></path>
            <polyline id="Shape" class="stroke-primary" stroke-width="3" stroke-linecap="round" stroke-linejoin="round" points="35.4 74.3 35.4 67.1 102.1 67.1"></polyline>
            <path d="M102.3,67.1 L33.5,67.1 C31.5,67.1 29.9,65.5 29.9,63.5 L29.9,53.6 C29.9,51.6 31.5,50 33.5,50" id="Shape" class="stroke-primary" stroke-width="3" stroke-linecap="round" stroke-linejoin="round"></path>
            <path d="M45.6,50.1 L117.1,50.1 C119.1,50.1 120.7,51.7 120.7,53.7 L120.7,63.6 C120.7,65.6 119.1,67.2 117.1,67.2 L110.6,67.2" id="Shape" class="stroke-primary" stroke-width="3" stroke-linecap="round" stroke-linejoin="round"></path>
            <path d="M38.5,50.1 L39.3,50.1" id="Shape" class="stroke-primary" stroke-width="3" stroke-linecap="round" stroke-linejoin="round"></path>
            <path d="M68.6,60.2 L68.6,50.1" id="Shape" class="stroke-primary" stroke-width="3" stroke-linecap="round" stroke-linejoin="round"></path>
            <path d="M68.6,126.6 L68.6,67.1" id="Shape" class="stroke-primary" stroke-width="3" stroke-linecap="round" stroke-linejoin="round"></path>
            <path d="M82,98.9 L82,126.6" id="Shape" class="stroke-primary" stroke-width="3" stroke-linecap="round" stroke-linejoin="round"></path>
            <path d="M82,87.1 L82,88" id="Shape" class="stroke-primary" stroke-width="3" stroke-linecap="round" stroke-linejoin="round"></path>
            <path d="M82,54 L82,81.7" id="Shape" class="stroke-primary" stroke-width="3" stroke-linecap="round" stroke-linejoin="round"></path>
            <path d="M63.1,25.4 C62,25.4 60.8,25.6 59.8,25.8" id="Shape" class="stroke-primary" stroke-width="3" stroke-linecap="round" stroke-linejoin="round"></path>
            <path d="M55,28.5 C52.4,30.8 50.8,34.1 50.8,37.7 C50.8,44.5 56.3,50 63.1,50 L75.4,50 L75.4,37.7 C75.4,33.2 73,29.3 69.5,27.2" id="Shape" class="stroke-primary" stroke-width="3" stroke-linecap="round" stroke-linejoin="round"></path>
            <path d="M84.7,50.1 L75.5,50.1 L75.5,39.6 C75.5,33.8 80.2,29.1 86,29.1 C91.8,29.1 96.5,33.8 96.5,39.6 C96.5,41.8 95.8,43.9 94.6,45.6" id="Shape" class="stroke-primary" stroke-width="3" stroke-linecap="round" stroke-linejoin="round"></path>
            <path d="M57.3,33 C57.1,33.2 56.9,33.5 56.8,33.7" id="Shape" class="stroke-primary" stroke-width="3" stroke-linecap="round" stroke-linejoin="round"></path>
            <path d="M71.1,45.6 L71.1,37.9 C71.1,34.6 69.1,31.8 66.2,30.7" id="Shape" class="stroke-primary" stroke-width="3" stroke-linecap="round" stroke-linejoin="round"></path>
            <path d="M56.8,33.7 C56,34.9 55.6,36.4 55.6,37.9 C55.6,42.2 59.1,45.7 63.4,45.7 L66.2,45.7" id="Shape" class="stroke-primary" stroke-width="3" stroke-linecap="round" stroke-linejoin="round"></path>
            <path d="M79.5,46 L79.5,39.5 C79.5,38.2 79.9,37 80.5,36" id="Shape" class="stroke-primary" stroke-width="3" stroke-linecap="round" stroke-linejoin="round"></path>
            <path d="M85.2,33.1 C85.5,33.1 85.7,33 86,33 C89.6,33 92.5,35.9 92.5,39.5 C92.5,43.1 89.6,46 86,46 L84,46" id="Shape" class="stroke-primary" stroke-width="3" stroke-linecap="round" stroke-linejoin="round"></path>
            <g id="Group" class="stroke-primary" stroke-linecap="round" stroke-linejoin="round" stroke-width="3">
                <path d="M73.9,0.4 L73.9,10.6" id="Shape"></path>
                <g transform="translate(2.000000, 94.000000)" id="Shape">
                    <path d="M133.8,0.5 L143.6,3.2"></path>
                    <path d="M6.7,1.6 L10.2,0.9"></path>
                    <path d="M0.3,2.7 L1.4,2.5"></path>
                </g>
                <g transform="translate(0.000000, 54.000000)" id="Shape">
                    <path d="M0.1,0.1 L14.1,3.9"></path>
                    <path d="M133.6,3.5 L143.6,1.7"></path>
                </g>
                <g transform="translate(32.000000, 9.000000)" id="Shape">
                    <path d="M84.8,6.5 L79.5,12.6"></path>
                    <path d="M90.5,0.1 L87.8,3.1"></path>
                    <path d="M0,8 L3.5,12.9"></path>
                </g>
            </g>
        </g>
    </g>
</svg>
